X:1
T:Title
%%score { ( 1 4 ) | ( 2 3 ) }
L:1/8
Q:1/4=100
M:4/4
K:G
V:1 treble nm="Grand Piano"
V:4 treble 
V:2 bass 
V:3 bass 
V:1
 [Gd]2 [CFc]2 [DGB]2 [EGe]2 | [DGA]2 [DFc]2 [DGB]4 | [EGA]2 [DFA]2 [^CEB]2[K:bass] .[F,B,D]2 | %3
w: C.~L.~La~Trobe * * *|||
 [A,DF]2 [G,^CE]2 [F,D]4 | [DGd]2 [DFc]2 [DGB]2 [EGe]2 | [DGA]2 [DFc]2 [DGB]4 | %6
w: |||
 [EGA]2 [DFA]2 B^c [Ad]2 | [Ge]2 ^c2 [Fd]4 | F2 G2 A2 d2 | [Ac]2 [GB]2 [FA]4 | %10
w: ||||
 [Fd]2 [DF]2 [EG]2 [Ec]2 | z2 A2 z4 | [CG]4 [B,G]4 |] %13
w: |||
V:2
 [G,B,]2 D,2 G,2 C,2 | D,2 D,2 G,,4 | ^C,2 D,2 A,,2 z E | A,,2 A,,2 D,4 | B,2 A,2 G,2 C,2 | %5
 D,2 D,2 G,,4 | ^C,2 D,2 [G,DG]2 [F,D]2 | [E,B,]2 [A,G]2 [D,A,]4 | [CD]2 [B,D]2 [A,DF]2 [B,DG]2 | %9
 [F,D]2 [G,D]2 [D,D]4 | [D,A,]2 [C,A,]2 [B,,G,]2 [C,G,]2 | [D,G,D]2 .[D,F,D]2 [G,,G,]4 | %12
 [C,E,]4 [G,,G,]4 |] %13
V:3
 x8 | x8 | z4 z2 B,,2 | x8 | x8 | x8 | x8 | x8 | x8 | x8 | x8 | x8 | x8 |] %13
V:4
 x8 | x8 | x6[K:bass] x2 | x8 | x8 | x8 | x8 | x8 | x8 | x8 | x8 | B2 z C [B,G]4 | x8 |] %13

